Sweet-Rainbow/icons/application-x-executable.svg

<?xml version="1.0" encoding="UTF-8" standalone="no"?>
<!-- Generator: Gravit.io -->

<svg
   xmlns:dc="http://purl.org/dc/elements/1.1/"
   xmlns:cc="http://creativecommons.org/ns#"
   xmlns:rdf="http://www.w3.org/1999/02/22-rdf-syntax-ns#"
   xmlns:svg="http://www.w3.org/2000/svg"
   xmlns="http://www.w3.org/2000/svg"
   xmlns:sodipodi="http://sodipodi.sourceforge.net/DTD/sodipodi-0.dtd"
   xmlns:inkscape="http://www.inkscape.org/namespaces/inkscape"
   style="isolation:isolate"
   viewBox="0 0 36 36"
   width="48"
   height="48"
   version="1.1"
   id="svg9"
   sodipodi:docname="application-x-executable.svg"
   inkscape:version="0.92.4 (5da689c313, 2019-01-14)">
  <metadata
     id="metadata15">
    <rdf:RDF>
      <cc:Work
         rdf:about="">
        <dc:format>image/svg+xml</dc:format>
        <dc:type
           rdf:resource="http://purl.org/dc/dcmitype/StillImage" />
        <dc:title></dc:title>
      </cc:Work>
    </rdf:RDF>
  </metadata>
  <defs
     id="defs13" />
  <sodipodi:namedview
     pagecolor="#ffffff"
     bordercolor="#666666"
     borderopacity="1"
     objecttolerance="10"
     gridtolerance="10"
     guidetolerance="10"
     inkscape:pageopacity="0"
     inkscape:pageshadow="2"
     inkscape:window-width="640"
     inkscape:window-height="480"
     id="namedview11"
     showgrid="false"
     inkscape:zoom="29.365243"
     inkscape:cx="25.325443"
     inkscape:cy="32"
     inkscape:current-layer="svg9"
     units="px" />
  <linearGradient
     id="_lgradient_0"
     x1="0"
     y1="0.5"
     x2="0.90748805"
     y2="0.92007786"
     gradientTransform="matrix(46.59,0,0,49.42,0,-1.49)"
     gradientUnits="userSpaceOnUse">
    <stop
       offset="0%"
       stop-opacity="1"
       style="stop-color:rgb(0,196,255)"
       id="stop2" />
    <stop
       offset="83.88839793817618%"
       stop-opacity="1"
       style="stop-color:rgb(0,114,255)"
       id="stop4" />
  </linearGradient>
  <g
     id="g826"
     transform="matrix(0.79207681,0,0,0.79207681,-1.2173693,-0.31582525)">
    <path
       id="path7"
       d="m 34,10.28 v 0 c -0.955,0.552 -2.178,0.223 -2.73,-0.735 v 0 C 30.718,8.587 31.045,7.362 32,6.81 v 0 L 42.244,0.982 c 2.399,-1.364 4.03,-0.254 3.641,2.478 l -5.63,39.52 c -0.389,2.732 -2.55,3.679 -4.823,2.114 L 27.614,39.707 C 27.159,39.394 26.421,39.394 25.966,39.706 L 19.9,43.87 19.304,44.077 c -1.564,0.542 -3.088,-0.337 -3.4,-1.963 L 14.399,34.282 C 14.295,33.74 13.809,33.101 13.314,32.856 L 4.479,28.472 C 2.007,27.246 1.942,25.133 4.334,23.756 L 22,13.59 v 0 c 0.955,-0.552 2.178,-0.225 2.73,0.73 v 0 c 0.552,0.955 0.225,2.178 -0.73,2.73 v 0 L 9.734,25.253 c -0.957,0.55 -0.901,1.329 0.124,1.737 l 6.003,2.39 c 0.513,0.204 1.047,0.802 1.193,1.335 l 2.212,8.09 c 0.146,0.533 0.639,0.72 1.102,0.419 l 6.004,-3.918 c 0.463,-0.301 1.2,-0.281 1.645,0.044 l 6.819,4.989 c 0.891,0.652 1.738,0.293 1.891,-0.8 L 41.133,8.091 c 0.153,-1.093 -0.504,-1.541 -1.466,-1 z"
       style="fill:url(#_lgradient_0)"
       inkscape:connector-curvature="0" />
  </g>
</svg>

<?xml version="1.0" encoding="UTF-8" standalone="no"?><!-- Generator: Gravit.io --><svg xmlns="http://www.w3.org/2000/svg" xmlns:xlink="http://www.w3.org/1999/xlink" style="isolation:isolate" viewBox="0 0 48 48" width="48pt" height="48pt"><linearGradient id="_lgradient_0" x1="0" y1="0.5" x2="0.9074880558539661" y2="0.9200778838291643" gradientTransform="matrix(46.59,0,0,49.42,0,-1.49)" gradientUnits="userSpaceOnUse"><stop offset="0%" stop-opacity="1" style="stop-color:rgb(0,196,255)"/><stop offset="83.88839793817618%" stop-opacity="1" style="stop-color:rgb(0,114,255)"/></linearGradient><path d=" M 34 10.28 L 34 10.28 C 33.045 10.832 31.822 10.503 31.27 9.545 L 31.27 9.545 C 30.718 8.587 31.045 7.362 32 6.81 L 32 6.81 L 42.244 0.982 C 44.643 -0.382 46.274 0.728 45.885 3.46 L 40.255 42.98 C 39.866 45.712 37.705 46.659 35.432 45.094 L 27.614 39.707 C 27.159 39.394 26.421 39.394 25.966 39.706 L 19.9 43.87 L 19.304 44.077 C 17.74 44.619 16.216 43.74 15.904 42.114 L 14.399 34.282 C 14.295 33.74 13.809 33.101 13.314 32.856 L 4.479 28.472 C 2.007 27.246 1.942 25.133 4.334 23.756 L 22 13.59 L 22 13.59 C 22.955 13.038 24.178 13.365 24.73 14.32 L 24.73 14.32 C 25.282 15.275 24.955 16.498 24 17.05 L 24 17.05 L 9.734 25.253 C 8.777 25.803 8.833 26.582 9.858 26.99 L 15.861 29.38 C 16.374 29.584 16.908 30.182 17.054 30.715 L 19.266 38.805 C 19.412 39.338 19.905 39.525 20.368 39.224 L 26.372 35.306 C 26.835 35.005 27.572 35.025 28.017 35.35 L 34.836 40.339 C 35.727 40.991 36.574 40.632 36.727 39.539 L 41.133 8.091 C 41.286 6.998 40.629 6.55 39.667 7.091 L 34 10.28 Z " fill="url(#_lgradient_0)"/></svg>
